public/images/close.svg

<svg xmlns="http://www.w3.org/2000/svg" width="800" height="800" viewBox="-28 0 512 512"><path d="m64 388 132-132L64 124l32-32 132 132L360 92l32 32-132 132 132 132-32 32-132-132L96 420z"/></svg>

<?xml version="1.0" encoding="utf-8"?><!-- Uploaded to: SVG Repo, www.svgrepo.com, Generator: SVG Repo Mixer Tools -->
<svg fill="#000000" width="800px" height="800px" viewBox="-28 0 512 512" xmlns="http://www.w3.org/2000/svg" ><title>cancel</title><path d="M64 388L196 256 64 124 96 92 228 224 360 92 392 124 260 256 392 388 360 420 228 288 96 420 64 388Z" /></svg>
